24x24/devices/blueman-laptop.svg

<svg height="24" width="24" xmlns="http://www.w3.org/2000/svg"><g fill="#8b9cbe"><path d="m5.002 6c-.555 0-1.002.487-1.002 1.092v9.816c0 .605.447 1.092 1.002 1.092h13.996c.555 0 1.002-.487 1.002-1.092v-9.816c0-.605-.447-1.092-1.002-1.092zm.51 1h12.976c.284 0 .512.22.512.494v9.012a.502.502 0 0 1 -.512.494h-12.976a.502.502 0 0 1 -.512-.494v-9.012c0-.273.228-.494.512-.494z"/><path d="m4 18h16v1h-16z"/></g></svg>

<svg width="24" height="24" xmlns="http://www.w3.org/2000/svg"><defs><style id="current-color-scheme" type="text/css">.ColorScheme-Text{color:#8b9cbe}</style></defs><path class="ColorScheme-Text" d="M5.002 6C4.447 6 4 6.487 4 7.092v9.816C4 17.513 4.447 18 5.002 18h13.996c.555 0 1.002-.487 1.002-1.092V7.092C20 6.487 19.553 6 18.998 6zm.51 1h12.976c.284 0 .512.22.512.494v9.012a.502.502 0 0 1-.512.494H5.512A.502.502 0 0 1 5 16.506V7.494C5 7.221 5.228 7 5.512 7z" fill="currentColor"/><rect class="ColorScheme-Text" x="4" y="18" width="16" height="1" rx="0" ry="0" fill="currentColor"/></svg>
